packages/bezier-icons/icons/weather-sun.svg

<svg width="24" height="24" viewBox="0 0 24 24" fill="none" xmlns="http://www.w3.org/2000/svg">
<path fill-rule="evenodd" clip-rule="evenodd" d="M11 6H13V2H11V6ZM5.6355 4.22192L8.4645 7.04992L7.0505 8.46392L4.2215 5.63592L5.6355 4.22192ZM12.0002 14.5001C10.6222 14.5001 9.50018 13.3791 9.50018 12.0001C9.50018 10.6211 10.6222 9.50012 12.0002 9.50012C13.3782 9.50012 14.5002 10.6211 14.5002 12.0001C14.5002 13.3791 13.3782 14.5001 12.0002 14.5001ZM12.0002 7.50012C9.51918 7.50012 7.50018 9.51912 7.50018 12.0001C7.50018 14.4811 9.51918 16.5001 12.0002 16.5001C14.4812 16.5001 16.5002 14.4811 16.5002 12.0001C16.5002 9.51912 14.4812 7.50012 12.0002 7.50012ZM2 13H6V11H2V13ZM18.364 4.2218L19.778 5.6358L16.95 8.4638L15.536 7.0498L18.364 4.2218ZM18 13H22V11H18V13ZM18.3638 19.7783L15.5358 16.9493L16.9498 15.5353L19.7778 18.3643L18.3638 19.7783ZM11 22H13V18H11V22ZM5.6358 19.7783L4.2218 18.3643L7.0508 15.5353L8.4648 16.9493L5.6358 19.7783Z" fill="#313234"/>
</svg>

<svg xmlns="http://www.w3.org/2000/svg" width="24" height="24" fill="none" viewBox="0 0 24 24"><path fill="#313234" fill-rule="evenodd" d="M11 6h2V2h-2zM5.636 4.222 8.464 7.05 7.051 8.464 4.22 5.636zM12 14.5A2.503 2.503 0 0 1 9.5 12c0-1.379 1.122-2.5 2.5-2.5s2.5 1.121 2.5 2.5-1.122 2.5-2.5 2.5m0-7A4.505 4.505 0 0 0 7.5 12c0 2.481 2.02 4.5 4.5 4.5s4.5-2.019 4.5-4.5-2.019-4.5-4.5-4.5M2 13h4v-2H2zm16.364-8.778 1.414 1.414-2.828 2.828-1.414-1.414zM18 13h4v-2h-4zm.364 6.778-2.828-2.829 1.414-1.414 2.828 2.83zM11 22h2v-4h-2zm-5.364-2.222-1.414-1.414 2.829-2.829 1.414 1.414z" clip-rule="evenodd"/></svg>
